src/main/webapp/img/lib/ibm/devops/collaborative_development.svg

<?xml version="1.0" encoding="UTF-8" standalone="no"?>
<!-- Generator: Adobe Illustrator 21.1.0, SVG Export Plug-In . SVG Version: 6.00 Build 0)  -->

<svg
   xmlns:dc="http://purl.org/dc/elements/1.1/"
   xmlns:cc="http://creativecommons.org/ns#"
   xmlns:rdf="http://www.w3.org/1999/02/22-rdf-syntax-ns#"
   xmlns:svg="http://www.w3.org/2000/svg"
   xmlns="http://www.w3.org/2000/svg"
   xmlns:sodipodi="http://sodipodi.sourceforge.net/DTD/sodipodi-0.dtd"
   xmlns:inkscape="http://www.inkscape.org/namespaces/inkscape"
   version="1.1"
   id="Layer_1"
   x="0px"
   y="0px"
   viewBox="0 0 60.2 60.2"
   style="enable-background:new 0 0 60.2 60.2;"
   xml:space="preserve"
   sodipodi:docname="collaborative_development.svg"
   inkscape:version="0.92.3 (2405546, 2018-03-11)"><metadata
   id="metadata3438"><rdf:RDF><cc:Work
       rdf:about=""><dc:format>image/svg+xml</dc:format><dc:type
         rdf:resource="http://purl.org/dc/dcmitype/StillImage" /></cc:Work></rdf:RDF></metadata><defs
   id="defs3436" /><sodipodi:namedview
   pagecolor="#ffffff"
   bordercolor="#666666"
   borderopacity="1"
   objecttolerance="10"
   gridtolerance="10"
   guidetolerance="10"
   inkscape:pageopacity="0"
   inkscape:pageshadow="2"
   inkscape:window-width="1920"
   inkscape:window-height="1017"
   id="namedview3434"
   showgrid="false"
   inkscape:zoom="11.088186"
   inkscape:cx="13.854599"
   inkscape:cy="31.18792"
   inkscape:window-x="-8"
   inkscape:window-y="-8"
   inkscape:window-maximized="1"
   inkscape:current-layer="Layer_1" />
<style
   type="text/css"
   id="style3416">
	.st0{fill:#F37738;}
	.st1{fill:#FFFFFF;}
</style>
<title
   id="title3418">INDIVIDUAL ICONS</title>
<g
   id="Layer_2">
	<circle
   class="st0"
   cx="30.1"
   cy="30.1"
   r="30.1"
   id="circle3420" />
</g>




<path
   id="path3431"
   d="M 45.3,39.6 H 35.2 c -1.4,0 -2.5,1.1 -2.5,2.5 0,0 0,0 0,0 V 46 h 15.2 v -3.8 c -0.1,-1.4 -1.2,-2.5 -2.6,-2.6 0,0 0,0 0,0 z M 25,39.6 H 14.9 c -1.4,0 -2.5,1.1 -2.6,2.5 0,0 0,0 0,0.1 V 46 h 15.2 v -3.8 c 0.1,-1.4 -1,-2.5 -2.5,-2.6 0.1,0 0.1,0 0,0 z M 36.4,16.8 c 0,-3.5 -2.9,-6.3 -6.4,-6.3 -3.5,0 -6.3,2.9 -6.3,6.4 0,3.5 2.8,6.3 6.3,6.3 3.6,0 6.4,-2.8 6.4,-6.4 0,0.1 0,0.1 0,0 z m -6.3,5.1 c -2.8,0 -5.1,-2.3 -5.1,-5.1 0,-2.8 2.3,-5.1 5.1,-5.1 2.8,0 5.1,2.3 5.1,5.1 0,2.8 -2.3,5.1 -5.1,5.1 z m 3.8,8.9 c 0,3.5 2.8,6.3 6.3,6.3 3.5,0 6.3,-2.8 6.3,-6.3 0,-3.5 -2.8,-6.3 -6.3,-6.3 -3.5,0 -6.3,2.8 -6.3,6.3 0,0 0,0 0,0 z m 6.3,-5.1 c 2.8,0 5.1,2.3 5.1,5.1 0,2.8 -2.3,5.1 -5.1,5.1 -2.8,0 -5.1,-2.3 -5.1,-5.1 0.1,-2.8 2.3,-5.1 5.1,-5.1 z M 19.9,37.1 c 3.5,0 6.3,-2.8 6.3,-6.3 0,-3.5 -2.8,-6.3 -6.3,-6.3 -3.5,0 -6.3,2.8 -6.3,6.3 0,3.5 2.8,6.3 6.3,6.3 0,0 0,0 0,0 z m 0,-11.4 c 2.8,0 5.1,2.2 5.1,5 0,2.8 -2.2,5.1 -5,5.1 -2.8,0 -5.1,-2.2 -5.1,-5 0,0 0,0 0,0 0,-2.8 2.3,-5.1 5,-5.1 z"
   style="fill:#ffffff" />
</svg>

<?xml version="1.0" encoding="utf-8"?>
<!-- Generator: Adobe Illustrator 21.1.0, SVG Export Plug-In . SVG Version: 6.00 Build 0)  -->
<svg version="1.1" id="Layer_1" xmlns="http://www.w3.org/2000/svg" xmlns:xlink="http://www.w3.org/1999/xlink" x="0px" y="0px"
	 viewBox="0 0 60.2 60.2" style="enable-background:new 0 0 60.2 60.2;" xml:space="preserve">
<style type="text/css">
	.st0{fill:#F37738;}
	.st1{fill:#FFFFFF;}
</style>
<title>INDIVIDUAL ICONS</title>
<g id="Layer_2">
	<circle class="st0" cx="30.1" cy="30.1" r="30.1"/>
</g>
<path class="st1" d="M19.9,37.1c3.5,0,6.3-2.8,6.3-6.3c0-3.5-2.8-6.3-6.3-6.3c-3.5,0-6.3,2.8-6.3,6.3S16.4,37.1,19.9,37.1
	C19.9,37.1,19.9,37.1,19.9,37.1z M19.9,25.7c2.8,0,5.1,2.2,5.1,5s-2.2,5.1-5,5.1c-2.8,0-5.1-2.2-5.1-5c0,0,0,0,0,0
	C14.9,28,17.2,25.7,19.9,25.7z"/>
<path class="st1" d="M33.9,30.8c0,3.5,2.8,6.3,6.3,6.3s6.3-2.8,6.3-6.3s-2.8-6.3-6.3-6.3S33.9,27.3,33.9,30.8
	C33.9,30.8,33.9,30.8,33.9,30.8z M40.2,25.7c2.8,0,5.1,2.3,5.1,5.1s-2.3,5.1-5.1,5.1c-2.8,0-5.1-2.3-5.1-5.1
	C35.2,28,37.4,25.7,40.2,25.7z"/>
<path class="st1" d="M36.4,16.8c0-3.5-2.9-6.3-6.4-6.3c-3.5,0-6.3,2.9-6.3,6.4c0,3.5,2.8,6.3,6.3,6.3C33.6,23.2,36.4,20.4,36.4,16.8
	C36.4,16.9,36.4,16.9,36.4,16.8z M30.1,21.9c-2.8,0-5.1-2.3-5.1-5.1s2.3-5.1,5.1-5.1c2.8,0,5.1,2.3,5.1,5.1
	C35.2,19.6,32.9,21.9,30.1,21.9L30.1,21.9z"/>
<path class="st1" d="M25,39.6H14.9c-1.4,0-2.5,1.1-2.6,2.5c0,0,0,0,0,0.1V46h15.2v-3.8C27.6,40.8,26.5,39.7,25,39.6
	C25.1,39.6,25.1,39.6,25,39.6z"/>
<path class="st1" d="M45.3,39.6H35.2c-1.4,0-2.5,1.1-2.5,2.5c0,0,0,0,0,0V46h15.2v-3.8C47.8,40.8,46.7,39.7,45.3,39.6
	C45.3,39.6,45.3,39.6,45.3,39.6z"/>
</svg>
